X:64
T:New Portugese Hymn. WHG.064
T:103 Ps. WHG.062, The
C:John Francis Wade (1743)
R:hymn
B:W.H.Giles MS,Bampton,Oxfordshire,1839p64
O:England
H:donated by Mrs W.R.Kettlewell to VWML,Apr 1927.
A:Bampton, Oxfordshire
N:Better known as "O Come All Ye Faithful" by
N:Frederick Oakeley or "Adeste Fideles" by John
N:Francis Wade (1743). MS has c2 for last note.
N:The Portuguese name is due to an error by the
N:Duke of Leeds.
Z:PJHeadford - VMP 2009
M:C|
L:1/4
Q:1/2=100
K:C
c2 Gc|d2 G2|ec ef|e2 dc|\
c2 (BA)|(Bc) (de)|B2 A>G|G4||
g2 fe|f2 e2|de cd|B>A Gc|\
(cB) (cd)|c2 Ge|
(ed) (ef)|e2 de|\
(fe) (dc)|B2 cd|e2 d>c|Hc4|]

